_static/tfmri_icon.svg

<?xml version="1.0" encoding="UTF-8" standalone="no"?>
<svg
   width="260"
   height="260"
   overflow="hidden"
   version="1.1"
   id="svg819"
   sodipodi:docname="tfmri_icon.svg"
   inkscape:version="1.1.2 (1:1.1+202202050942+0a00cf5339)"
   inkscape:export-filename="/home/jmt/dev/mrphys/tensorflow-mri/tools/assets/tfmri_icon_128px.png"
   inkscape:export-xdpi="47.259998"
   inkscape:export-ydpi="47.259998"
   xmlns:inkscape="http://www.inkscape.org/namespaces/inkscape"
   xmlns:sodipodi="http://sodipodi.sourceforge.net/DTD/sodipodi-0.dtd"
   xmlns="http://www.w3.org/2000/svg"
   xmlns:svg="http://www.w3.org/2000/svg">
  <sodipodi:namedview
     id="namedview821"
     pagecolor="#ffffff"
     bordercolor="#666666"
     borderopacity="1.0"
     inkscape:pageshadow="2"
     inkscape:pageopacity="0.0"
     inkscape:pagecheckerboard="0"
     showgrid="false"
     height="260px"
     inkscape:zoom="3.3706564"
     inkscape:cx="95.085338"
     inkscape:cy="129.5"
     inkscape:window-width="2492"
     inkscape:window-height="1376"
     inkscape:window-x="68"
     inkscape:window-y="27"
     inkscape:window-maximized="1"
     inkscape:current-layer="svg819" />
  <defs
     id="defs813">
    <clipPath
       id="clip0">
      <rect
         x="1264"
         y="1238"
         width="260"
         height="259"
         id="rect719" />
    </clipPath>
    <linearGradient
       x1="1264"
       y1="1367.5"
       x2="1524"
       y2="1367.5"
       gradientUnits="userSpaceOnUse"
       spreadMethod="reflect"
       id="fill1">
      <stop
         offset="0"
         stop-color="#128091"
         id="stop722" />
      <stop
         offset="0.0227273"
         stop-color="#128192"
         id="stop724" />
      <stop
         offset="0.0454545"
         stop-color="#128394"
         id="stop726" />
      <stop
         offset="0.0681818"
         stop-color="#128496"
         id="stop728" />
      <stop
         offset="0.0909091"
         stop-color="#128698"
         id="stop730" />
      <stop
         offset="0.113636"
         stop-color="#13889A"
         id="stop732" />
      <stop
         offset="0.136364"
         stop-color="#13899B"
         id="stop734" />
      <stop
         offset="0.159091"
         stop-color="#138B9D"
         id="stop736" />
      <stop
         offset="0.181818"
         stop-color="#138C9F"
         id="stop738" />
      <stop
         offset="0.204545"
         stop-color="#148DA0"
         id="stop740" />
      <stop
         offset="0.227273"
         stop-color="#148FA2"
         id="stop742" />
      <stop
         offset="0.25"
         stop-color="#1490A3"
         id="stop744" />
      <stop
         offset="0.272727"
         stop-color="#1491A5"
         id="stop746" />
      <stop
         offset="0.295455"
         stop-color="#1493A6"
         id="stop748" />
      <stop
         offset="0.318182"
         stop-color="#1594A8"
         id="stop750" />
      <stop
         offset="0.340909"
         stop-color="#1595A9"
         id="stop752" />
      <stop
         offset="0.363636"
         stop-color="#1596AA"
         id="stop754" />
      <stop
         offset="0.386364"
         stop-color="#1597AB"
         id="stop756" />
      <stop
         offset="0.409091"
         stop-color="#1599AD"
         id="stop758" />
      <stop
         offset="0.431818"
         stop-color="#159AAE"
         id="stop760" />
      <stop
         offset="0.454545"
         stop-color="#169BAF"
         id="stop762" />
      <stop
         offset="0.477273"
         stop-color="#169CB0"
         id="stop764" />
      <stop
         offset="0.5"
         stop-color="#169DB1"
         id="stop766" />
      <stop
         offset="0.522727"
         stop-color="#169EB2"
         id="stop768" />
      <stop
         offset="0.545455"
         stop-color="#169EB3"
         id="stop770" />
      <stop
         offset="0.568182"
         stop-color="#169FB4"
         id="stop772" />
      <stop
         offset="0.590909"
         stop-color="#16A0B5"
         id="stop774" />
      <stop
         offset="0.613636"
         stop-color="#16A1B6"
         id="stop776" />
      <stop
         offset="0.636364"
         stop-color="#17A1B7"
         id="stop778" />
      <stop
         offset="0.659091"
         stop-color="#17A2B8"
         id="stop780" />
      <stop
         offset="0.681818"
         stop-color="#17A3B8"
         id="stop782" />
      <stop
         offset="0.704545"
         stop-color="#17A3B9"
         id="stop784" />
      <stop
         offset="0.727273"
         stop-color="#17A4BA"
         id="stop786" />
      <stop
         offset="0.75"
         stop-color="#17A5BA"
         id="stop788" />
      <stop
         offset="0.772727"
         stop-color="#17A5BB"
         id="stop790" />
      <stop
         offset="0.795455"
         stop-color="#17A5BB"
         id="stop792" />
      <stop
         offset="0.818182"
         stop-color="#17A6BC"
         id="stop794" />
      <stop
         offset="0.840909"
         stop-color="#17A6BC"
         id="stop796" />
      <stop
         offset="0.863636"
         stop-color="#17A7BC"
         id="stop798" />
      <stop
         offset="0.886364"
         stop-color="#17A7BD"
         id="stop800" />
      <stop
         offset="0.909091"
         stop-color="#17A7BD"
         id="stop802" />
      <stop
         offset="0.931818"
         stop-color="#17A7BD"
         id="stop804" />
      <stop
         offset="0.954545"
         stop-color="#17A7BD"
         id="stop806" />
      <stop
         offset="0.977273"
         stop-color="#17A7BD"
         id="stop808" />
      <stop
         offset="1"
         stop-color="#18A8BE"
         id="stop810" />
    </linearGradient>
  </defs>
  <g
     clip-path="url(#clip0)"
     transform="translate(-1264,-1237.5)"
     id="g817">
    <path
       d="m 1394,1302.75 c -35.9,0 -65,28.99 -65,64.75 0,35.76 29.1,64.75 65,64.75 35.9,0 65,-28.99 65,-64.75 0,-35.76 -29.1,-64.75 -65,-64.75 z m 0,-12.95 c 43.08,0 78,34.79 78,77.7 0,42.91 -34.92,77.7 -78,77.7 -43.08,0 -78,-34.79 -78,-77.7 0,-42.91 34.92,-77.7 78,-77.7 z m 0,-12.95 c -50.26,0 -91,40.59 -91,90.65 0,50.06 40.74,90.65 91,90.65 50.26,0 91,-40.59 91,-90.65 0,-50.06 -40.74,-90.65 -91,-90.65 z m 0,-38.85 c 71.8,0 130,57.98 130,129.5 0,71.52 -58.2,129.5 -130,129.5 -71.8,0 -130,-57.98 -130,-129.5 0,-71.52 58.2,-129.5 130,-129.5 z"
       fill="url(#fill1)"
       fill-rule="evenodd"
       id="path815"
       style="fill:url(#fill1)" />
  </g>
</svg>

<svg width="260" height="259" xmlns="http://www.w3.org/2000/svg" xmlns:xlink="http://www.w3.org/1999/xlink" overflow="hidden"><defs><clipPath id="clip0"><rect x="1264" y="1238" width="260" height="259"/></clipPath><linearGradient x1="1264" y1="1367.5" x2="1524" y2="1367.5" gradientUnits="userSpaceOnUse" spreadMethod="reflect" id="fill1"><stop offset="0" stop-color="#128091"/><stop offset="0.0227273" stop-color="#128192"/><stop offset="0.0454545" stop-color="#128394"/><stop offset="0.0681818" stop-color="#128496"/><stop offset="0.0909091" stop-color="#128698"/><stop offset="0.113636" stop-color="#13889A"/><stop offset="0.136364" stop-color="#13899B"/><stop offset="0.159091" stop-color="#138B9D"/><stop offset="0.181818" stop-color="#138C9F"/><stop offset="0.204545" stop-color="#148DA0"/><stop offset="0.227273" stop-color="#148FA2"/><stop offset="0.25" stop-color="#1490A3"/><stop offset="0.272727" stop-color="#1491A5"/><stop offset="0.295455" stop-color="#1493A6"/><stop offset="0.318182" stop-color="#1594A8"/><stop offset="0.340909" stop-color="#1595A9"/><stop offset="0.363636" stop-color="#1596AA"/><stop offset="0.386364" stop-color="#1597AB"/><stop offset="0.409091" stop-color="#1599AD"/><stop offset="0.431818" stop-color="#159AAE"/><stop offset="0.454545" stop-color="#169BAF"/><stop offset="0.477273" stop-color="#169CB0"/><stop offset="0.5" stop-color="#169DB1"/><stop offset="0.522727" stop-color="#169EB2"/><stop offset="0.545455" stop-color="#169EB3"/><stop offset="0.568182" stop-color="#169FB4"/><stop offset="0.590909" stop-color="#16A0B5"/><stop offset="0.613636" stop-color="#16A1B6"/><stop offset="0.636364" stop-color="#17A1B7"/><stop offset="0.659091" stop-color="#17A2B8"/><stop offset="0.681818" stop-color="#17A3B8"/><stop offset="0.704545" stop-color="#17A3B9"/><stop offset="0.727273" stop-color="#17A4BA"/><stop offset="0.75" stop-color="#17A5BA"/><stop offset="0.772727" stop-color="#17A5BB"/><stop offset="0.795455" stop-color="#17A5BB"/><stop offset="0.818182" stop-color="#17A6BC"/><stop offset="0.840909" stop-color="#17A6BC"/><stop offset="0.863636" stop-color="#17A7BC"/><stop offset="0.886364" stop-color="#17A7BD"/><stop offset="0.909091" stop-color="#17A7BD"/><stop offset="0.931818" stop-color="#17A7BD"/><stop offset="0.954545" stop-color="#17A7BD"/><stop offset="0.977273" stop-color="#17A7BD"/><stop offset="1" stop-color="#18A8BE"/></linearGradient></defs><g clip-path="url(#clip0)" transform="translate(-1264 -1238)"><path d="M1394 1302.75C1358.1 1302.75 1329 1331.74 1329 1367.5 1329 1403.26 1358.1 1432.25 1394 1432.25 1429.9 1432.25 1459 1403.26 1459 1367.5 1459 1331.74 1429.9 1302.75 1394 1302.75ZM1394 1289.8C1437.08 1289.8 1472 1324.59 1472 1367.5 1472 1410.41 1437.08 1445.2 1394 1445.2 1350.92 1445.2 1316 1410.41 1316 1367.5 1316 1324.59 1350.92 1289.8 1394 1289.8ZM1394 1276.85C1343.74 1276.85 1303 1317.44 1303 1367.5 1303 1417.56 1343.74 1458.15 1394 1458.15 1444.26 1458.15 1485 1417.56 1485 1367.5 1485 1317.44 1444.26 1276.85 1394 1276.85ZM1394 1238C1465.8 1238 1524 1295.98 1524 1367.5 1524 1439.02 1465.8 1497 1394 1497 1322.2 1497 1264 1439.02 1264 1367.5 1264 1295.98 1322.2 1238 1394 1238Z" fill="url(#fill1)" fill-rule="evenodd"/></g></svg>
